src/assets/icons/chart-line.svg

<svg width="14" height="14" viewBox="0 0 14 14" fill="none" xmlns="http://www.w3.org/2000/svg">
<g id="chart-line">
<g clip-path="url(#clip0_156_4529)">
<path id="Vector" fill-rule="evenodd" clip-rule="evenodd" d="M1.27273 0.636364C1.27273 0.28491 0.987818 0 0.636364 0C0.28491 0 0 0.28491 0 0.636364V13.3636C0 13.7151 0.28491 14 0.636364 14H13.3636C13.7151 14 14 13.7151 14 13.3636C14 13.0122 13.7151 12.7273 13.3636 12.7273H1.27273V0.636364ZM9.54545 4.24242C9.194 4.24242 8.90909 4.52733 8.90909 4.87879C8.90909 5.23024 9.194 5.51515 9.54545 5.51515H10.9788L8.69697 7.79702L6.60149 5.70154C6.35298 5.45302 5.95005 5.45302 5.70154 5.70154L3.15608 8.24699C2.90757 8.49551 2.90757 8.89843 3.15608 9.14695C3.4046 9.39546 3.80752 9.39546 4.05604 9.14695L6.15152 7.05147L8.24699 9.14695C8.49551 9.39546 8.89843 9.39546 9.14695 9.14695L11.8788 6.41511V7.92487C11.8788 8.27633 12.1637 8.56124 12.5152 8.56124C12.8666 8.56124 13.1515 8.27633 13.1515 7.92487V4.87879C13.1515 4.52733 12.8666 4.24242 12.5152 4.24242H9.54545Z" fill="black"/>
</g>
</g>
<defs>
<clipPath id="clip0_156_4529">
<rect width="14" height="14" fill="white"/>
</clipPath>
</defs>
</svg>

<svg xmlns="http://www.w3.org/2000/svg" fill="none" viewBox="0 0 14 14"><g clip-path="url(#a)"><path fill="#000" fill-rule="evenodd" d="M1.273.636A.636.636 0 0 0 0 .636v12.728c0 .351.285.636.636.636h12.728a.636.636 0 1 0 0-1.273H1.273zm8.272 3.606a.636.636 0 0 0 0 1.273h1.434L8.697 7.797 6.601 5.702a.636.636 0 0 0-.9 0L3.157 8.247a.636.636 0 0 0 .9.9l2.096-2.096 2.095 2.096a.636.636 0 0 0 .9 0l2.732-2.732v1.51a.636.636 0 1 0 1.273 0V4.879a.636.636 0 0 0-.637-.637z" clip-rule="evenodd"/></g><defs><clipPath id="a"><path fill="#fff" d="M0 0h14v14H0z"/></clipPath></defs></svg>
